svg/black/fair.svg

<svg xmlns="http://www.w3.org/2000/svg" width="32" height="32" viewBox="0 0 32 32">
  <path fill-rule="evenodd" d="M16,32 C7.163444,32 0,24.836556 0,16 C0,7.163444 7.163444,0 16,0 C24.836556,0 32,7.163444 32,16 C32,24.836556 24.836556,32 16,32 Z M8,24.253546 L8,24.5201759 C8.01498895,24.5784879 8.0295025,24.6369065 8.04502278,24.6951118 C8.20506336,25.2939359 8.61958051,25.6674043 9.21969775,25.8492726 C9.92786966,26.063883 10.6521491,26.0208489 11.3703043,25.8964928 C12.422495,25.7142512 13.3016975,25.2192795 14.0447411,24.4971924 C14.5590634,23.997368 14.9812987,23.4325126 15.3261844,22.8137446 C16.037712,21.5373073 16.472811,20.1650965 16.8620762,18.7780878 C17.0556742,18.0882896 17.2243837,17.392039 17.3993853,16.6975747 C17.4291954,16.5791911 17.4824677,16.5395699 17.6160539,16.5402098 C18.1093749,16.5426894 18.6031433,16.5373835 19.0960169,16.5179195 C19.3843584,16.5065344 19.6545789,16.4277986 19.8487641,16.1994034 C19.9423612,16.0892586 20.0449348,15.9854063 20.1311492,15.8703288 C20.395665,15.5173642 20.3510897,15.066813 20.0350913,14.7534962 C19.7763362,14.4969449 19.4484809,14.4043443 19.0925493,14.3913328 C18.7627365,14.3792811 18.4320568,14.3887731 18.0987764,14.3887731 C18.0974341,14.360857 18.0924005,14.3428061 18.0963714,14.3268084 C18.1768811,14.0005867 18.2614736,13.6752715 18.3375649,13.3481167 C18.356329,13.2673811 18.4060778,13.2690609 18.4690258,13.2679944 C18.9437784,13.2599155 19.4187267,13.2558361 19.8932276,13.2398383 C20.2482084,13.2278399 20.5880605,13.1788333 20.8782476,12.9414261 C21.2340674,12.6503462 21.3094316,12.3513741 21.2361088,11.9696934 C21.1642122,11.5954517 20.8910554,11.3764419 20.5335018,11.2421671 C20.2411893,11.1324222 19.9351743,11.1305292 19.6276212,11.1357018 C19.4155667,11.1392746 19.2034004,11.136395 18.9861725,11.136395 C18.9908985,11.0925611 18.9894723,11.0651515 18.9971345,11.0402483 C19.2472207,10.2244674 19.5506071,9.42836391 19.9706332,8.67641428 C20.1725925,8.31481081 20.412975,7.97797727 20.719801,7.68873716 C20.7772959,7.63458463 20.8540584,7.59898953 20.9219002,7.55483562 L20.9489418,7.5897908 C20.9371128,7.62298623 20.9237738,7.6557817 20.9137625,7.68945706 C20.7803161,8.1377419 20.8212561,8.55931043 21.1539772,8.92075391 C21.5082869,9.30560751 21.9657854,9.45009425 22.4977253,9.43220338 C23.1908243,9.40887326 23.9555963,8.83660552 23.9988014,7.9373962 C24.014042,7.61999997 23.8814346,7.35225023 23.7438215,7.08255409 C23.5263698,6.65626621 23.1798343,6.3593205 22.7136109,6.19926257 C21.9381285,5.93300596 21.1413652,5.96697461 20.3520404,6.10711528 C19.1621808,6.31833949 18.1693866,6.89362015 17.3263981,7.70649471 C16.6859001,8.3241162 16.1701237,9.03487151 15.730103,9.79210041 C15.488574,10.2077498 15.2854961,10.6442762 15.0774405,11.0768032 C15.0168975,11.2026792 14.950398,11.2519791 14.799334,11.2493661 C14.1750275,11.2385676 13.5503854,11.2396874 12.9259671,11.2445401 C12.7796011,11.2456866 12.6284532,11.2617377 12.4882953,11.3001324 C12.0901374,11.4092107 11.8413097,11.6686949 11.7832834,12.0572014 C11.7259842,12.4409084 11.8231607,12.7878206 12.1757646,13.0310137 C12.4598275,13.2269067 12.7885217,13.3043627 13.1279543,13.3176942 C13.5598933,13.3346519 13.9931467,13.3218003 14.431098,13.3218003 C14.431098,13.3563022 14.4357681,13.3789657 14.4303989,13.3992296 C14.3388712,13.7452886 14.2482105,14.0916141 14.1500273,14.4359933 C14.1411066,14.467269 14.0823812,14.5062769 14.0462791,14.5067569 C13.6600061,14.5117962 13.2735373,14.5046238 12.8872922,14.5111829 C12.4839888,14.5180353 12.0724639,14.4920122 11.679731,14.5600828 C11.1192953,14.6572428 10.826088,15.0384702 10.8356798,15.5342685 C10.8466419,16.1014703 11.2543077,16.4698995 11.8532784,16.5161864 C12.2931594,16.5501551 12.7370392,16.5373035 13.1791572,16.5442092 C13.3085208,16.5462623 13.4379683,16.5445292 13.5784897,16.5445292 C13.5587747,16.6373697 13.5461069,16.7157589 13.5253293,16.792175 C12.9982831,18.7329207 12.4746766,20.6745729 11.9387378,22.6130789 C11.8400233,22.9700697 11.6934336,23.3152754 11.5620846,23.663574 C11.5423137,23.7160201 11.4849866,23.755588 11.4450253,23.8011017 C11.4083919,23.7548681 11.3605447,23.7132205 11.3371105,23.6615476 C11.2515393,23.4726937 11.1200784,23.3222344 10.9454683,23.2039841 C10.4118785,22.8424873 9.82518418,22.7776162 9.20985426,22.9470329 C8.60436784,23.1137565 8.1977926,23.4817858 8.04328898,24.0785035 C8.02821614,24.1366821 8.0144017,24.1952074 8,24.253546 Z"/>
</svg>

<svg xmlns="http://www.w3.org/2000/svg" width="32" height="32"><path fill-rule="evenodd" d="M16 32C7.163 32 0 24.837 0 16S7.163 0 16 0s16 7.163 16 16-7.163 16-16 16zm-8-7.746v.266l.045.175c.16.599.575.972 1.175 1.154.708.215 1.432.172 2.15.047 1.052-.182 1.932-.677 2.675-1.399.514-.5.936-1.064 1.281-1.683.712-1.277 1.147-2.649 1.536-4.036.194-.69.362-1.386.537-2.08.03-.119.083-.158.217-.158.493.003.987-.003 1.48-.022.288-.011.559-.09.753-.319.093-.11.196-.214.282-.329.265-.353.22-.803-.096-1.117-.259-.256-.587-.349-.942-.362-.33-.012-.66-.002-.994-.002-.002-.028-.007-.046-.003-.062.08-.326.165-.652.242-.979.018-.08.068-.079.131-.08.475-.008.95-.012 1.424-.028.355-.012.695-.061.985-.299.356-.29.431-.59.358-.971-.072-.375-.345-.594-.702-.728-.293-.11-.599-.111-.906-.106-.212.003-.425 0-.642 0 .005-.043.003-.07.011-.096.25-.816.554-1.612.974-2.364.202-.361.442-.698.749-.987.057-.054.134-.09.202-.134l.027.035c-.012.033-.025.066-.035.1-.134.448-.093.87.24 1.23.354.386.812.53 1.344.512.693-.023 1.458-.595 1.5-1.495.016-.317-.117-.585-.254-.854a1.754 1.754 0 0 0-1.03-.884c-.776-.266-1.573-.232-2.362-.092-1.19.211-2.183.787-3.026 1.6-.64.617-1.156 1.328-1.596 2.085-.241.416-.445.852-.653 1.285-.06.126-.127.175-.278.172-.624-.01-1.249-.01-1.873-.004a1.727 1.727 0 0 0-.438.055c-.398.11-.647.369-.705.757-.057.384.04.73.393.974.284.196.613.273.952.287.432.017.865.004 1.303.004 0 .034.005.057 0 .077-.092.346-.183.693-.281 1.037-.009.031-.068.07-.104.07-.386.006-.772-.001-1.159.005-.403.007-.815-.019-1.207.05-.56.096-.854.477-.844.973.01.567.418.936 1.017.982.44.034.884.021 1.326.028.13.002.259 0 .4 0-.02.093-.033.172-.054.248-.527 1.94-1.05 3.883-1.586 5.821-.099.357-.246.702-.377 1.05-.02.053-.077.093-.117.138-.037-.046-.084-.088-.108-.14a1.086 1.086 0 0 0-.392-.457c-.533-.362-1.12-.426-1.735-.257-.606.167-1.012.535-1.167 1.132L8 24.254z"/></svg>
